html-practice-pages/web-app-images/explore.svg

<svg xmlns="http://www.w3.org/2000/svg" viewBox="0 0 640 640"><!--!Font Awesome Free 7.2.0 by @fontawesome - https://fontawesome.com License - https://fontawesome.com/license/free Copyright 2026 Fonticons, Inc.--><path d="M528 320c0-114.9-93.1-208-208-208s-208 93.1-208 208 93.1 208 208 208 208-93.1 208-208zm-464 0C64 178.6 178.6 64 320 64s256 114.6 256 256-114.6 256-256 256S64 461.4 64 320zm306.7 69.1-144.3 55.5c-19.4 7.5-38.5-11.6-31-31l55.5-144.3c3.3-8.5 9.9-15.1 18.4-18.4l144.3-55.5c19.4-7.5 38.5 11.6 31 31l-55.5 144.3c-3.3 8.5-9.9 15.1-18.4 18.4zM352 320c0-17.7-14.3-32-32-32s-32 14.3-32 32 14.3 32 32 32 32-14.3 32-32z"/></svg>

<svg xmlns="http://www.w3.org/2000/svg" viewBox="0 0 640 640"><!--!Font Awesome Free 7.2.0 by @fontawesome - https://fontawesome.com License - https://fontawesome.com/license/free Copyright 2026 Fonticons, Inc.--><path d="M528 320C528 205.1 434.9 112 320 112C205.1 112 112 205.1 112 320C112 434.9 205.1 528 320 528C434.9 528 528 434.9 528 320zM64 320C64 178.6 178.6 64 320 64C461.4 64 576 178.6 576 320C576 461.4 461.4 576 320 576C178.6 576 64 461.4 64 320zM370.7 389.1L226.4 444.6C207 452.1 187.9 433 195.4 413.6L250.9 269.3C254.2 260.8 260.8 254.2 269.3 250.9L413.6 195.4C433 187.9 452.1 207 444.6 226.4L389.1 370.7C385.8 379.2 379.2 385.8 370.7 389.1zM352 320C352 302.3 337.7 288 320 288C302.3 288 288 302.3 288 320C288 337.7 302.3 352 320 352C337.7 352 352 337.7 352 320z"/></svg>
